resources/svg/eye-close-fill.svg

<svg fill="currentColor" viewBox="0 0 24 24" xmlns="http://www.w3.org/2000/svg"><path d="M10.1305 15.8421L9.34268 18.7821L7.41083 18.2645L8.1983 15.3256C7.00919 14.8876 5.91661 14.2501 4.96116 13.4536L2.80783 15.6069L1.39362 14.1927L3.54695 12.0394C2.35581 10.6105 1.52014 8.8749 1.17578 6.96843L2.07634 6.80469C4.86882 8.81573 8.29618 10.0003 12.0002 10.0003C15.7043 10.0003 19.1316 8.81573 21.9241 6.80469L22.8247 6.96843C22.4803 8.8749 21.6446 10.6105 20.4535 12.0394L22.6068 14.1927L21.1926 15.6069L19.0393 13.4536C18.0838 14.2501 16.9912 14.8876 15.8021 15.3256L16.5896 18.2645L14.6578 18.7821L13.87 15.8421C13.2623 15.9461 12.6376 16.0003 12.0002 16.0003C11.3629 16.0003 10.7381 15.9461 10.1305 15.8421Z"/></svg>

<svg xmlns="http://www.w3.org/2000/svg" viewBox="0 0 24 24" fill="currentColor">
    <g>
        <path fill="none" d="M0 0h24v24H0z"/>
        <path d="M10.13 15.842l-.788 2.94-1.931-.518.787-2.939a10.988 10.988 0 0 1-3.237-1.872l-2.153 2.154-1.415-1.415 2.154-2.153a10.957 10.957 0 0 1-2.371-5.07l.9-.165A16.923 16.923 0 0 0 12 10c3.704 0 7.131-1.185 9.924-3.196l.9.164a10.957 10.957 0 0 1-2.37 5.071l2.153 2.153-1.415 1.415-2.153-2.154a10.988 10.988 0 0 1-3.237 1.872l.787 2.94-1.931.517-.788-2.94a11.072 11.072 0 0 1-3.74 0z"/>
    </g>
</svg>
